assets/Dine Inn/Dine Inn Logo.svg

<svg fill="none" height="230" viewBox="0 0 1024 230" width="1024" xmlns="http://www.w3.org/2000/svg"><g fill="#f93d59"><path clip-rule="evenodd" d="m126.494 1v81.7925l-.873.4071c-.609-.9333-1.204-1.8783-1.8-2.8232-1.243-1.9714-2.485-3.9426-3.843-5.8069-.64-.8798-1.168-1.8405-1.698-2.8035-1.13-2.0559-2.267-4.1231-4.516-5.4399-8.061-4.6916-16.956-6.5336-25.9913-7.3987-11.8363-1.1398-23.5821-.3562-35.057 3.7146-17.1871 6.0146-29.8767 17.2093-38.912 33.0651-7.38881 13.0059-10.37046 27.3249-11.50489 42.0509-.69133 9.455-.18185 18.96 1.51592 28.282 1.3763 8.297 3.88331 16.36 7.44907 23.957 6.1741 12.874 15.1994 23.051 27.7083 29.9 8.5038 4.63 17.9168 7.286 27.5576 7.775 13.9043.824 27.4773-.59 40.2973-6.472 2.671-1.222 5.512-2.687 7.419-4.824 1.859-2.061 3.327-4.459 4.795-6.855.728-1.189 1.457-2.378 2.233-3.526.975-1.424 1.991-2.791 3.009-4.16.481-.646.961-1.293 1.438-1.946l.703.275v23.407c.471.027.895.063 1.289.095.624.052 1.175.098 1.722.098 4.909.026 9.819.017 14.729.009 6.719-.012 13.437-.024 20.148.052 2.58.031 3.192-.773 3.192-3.317-.04-72.237-.06-144.473-.06-216.70933v-2.79867zm.713 140.605-.663-.112c.291-9.688-.652-19.224-3.905-28.383-2.711-7.623-7.098-14.1972-13.663-18.6242-3.119-2.0862-6.286-3.7272-9.4893-4.9206-5.9438-2.2366-12.016-2.9057-18.1472-2.0016-4.7512.688-9.5323 2.3146-14.3077 4.8869-10.0192 5.3938-15.862 14.5935-18.8737 25.3815-1.1802 4.184-1.7629 8.54-2.3462 12.901-.2553 1.908-.5106 3.817-.8162 5.713-1.3151 8.619-.261 17.189 1.3252 25.666 1.5037 8.556 5.0811 16.6 10.4106 23.407 3.2711 4.196 7.4175 7.548 12.099 9.846 2.6058 1.288 5.379 2.249 8.2605 2.845 5.5657 1.14 11.3001 1.14 16.8658 0 5.6528-.953 10.9912-3.29 15.5512-6.809 8.422-6.686 13.051-15.815 14.958-26.195.974-5.344 1.487-10.78 2-16.218.087-.923.175-1.847.264-2.771.104-1.077.212-2.154.326-3.229.049-.461.099-.922.151-1.383z" fill-rule="evenodd"/><path d="m400.565 223.581c-1.185.071-2.079.173-3.012.183-11.626 0-23.261-.071-34.886.061-2.591 0-3.173-.794-3.173-3.328.087-29.757.087-59.521 0-89.293.047-6.338-.288-12.673-1.004-18.969-1.516-11.938-7.569-20.3544-19.556-23.4075-9.307-2.4221-18.402-2.1474-26.674 3.2464-5.622 3.7933-10.032 9.1651-12.69 15.4591-4.074 8.819-6.316 18.394-6.586 28.129-.472 28.038-.602 56.085-.873 84.123v3.786c-1.084.081-2.008.203-2.861.203-11.716 0-23.422 0-35.138.072-2.479 0-3.011-.825-3.011-3.206.06-51.638.077-103.28.05-154.9245v-2.819c1.004-.0712 1.646-.1527 2.299-.1527h36.141c1.958 0 2.63.5394 2.59 2.5748-.11 6.2691 0 12.5483 0 18.8173v2.7579l.783.4987c1.133-1.2367 2.198-2.5344 3.193-3.8876 2.73-4.2031 4.849-8.9456 8.162-12.5686 2.76-3.0531 6.686-5.1597 10.44-6.9814 11.495-5.5668 23.844-5.9739 36.242-5.0885 10.591.7429 20.661 3.5213 29.425 9.8412 8.36 5.9641 14.398 14.7058 17.067 24.7097 2.941 10.4517 3.142 21.1787 3.162 31.9257.04 31.792.04 63.589 0 95.388z"/><path d="m684.594 59.8027v15.5809c1.727-1.3128 3.012-2.1778 4.166-3.1853 5.903-5.1496 11.746-10.3704 17.669-15.4996 10.334-8.9558 20.681-17.8878 31.042-26.796 4.608-3.969 9.145-8.0297 13.844-11.8867 3.493-2.8598 7.308-2.6155 10.611.4579 5.692 5.2819 11.314 10.635 16.976 15.9474 8.942 8.3994 17.887 16.7852 26.835 25.1575l26.102 24.4248c1.084.9816 1.938 2.1966 2.499 3.556s.816 2.8288.744 4.3006c-.06 40.8778-.06 81.7548 0 122.6328 0 5.597-3.142 9.159-8.634 9.23-15.982.123-31.955.082-47.937 0-3.353 0-4.397-1.261-4.397-4.742v-47.008c.102-.82-.05-1.653-.435-2.382-.384-.729-.983-1.319-1.714-1.688-7.268-4.254-10.41-10.951-9.898-19.235.672-10.879 1.747-21.728 2.68-32.566.432-5.089.934-10.096 1.416-15.144.004-.324.073-.645.202-.943.129-.2968.317-.5646.551-.7867.12 1.2417.351 2.4837.351 3.7147-.067 13.393-.161 26.786-.281 40.179 0 .682-.231 1.506.07 2.035.482.794 1.345 1.913 2.008 1.883.46-.127.879-.373 1.217-.714s.583-.764.711-1.23c.512-7.684.763-15.377 1.234-23.061.482-7.908 1.115-15.815 2.269-23.7735.16.4652.271.9462.332 1.435.18 8.4675.311 16.9445.512 25.4425.16 6.595.431 13.23.602 19.784 0 1.343.251 2.341 1.907 2.31 1.657-.03 2.179-.875 2.189-2.412 0-7.622 0-15.265.231-22.888.231-7.938.723-15.856 1.415-23.8445.402 3.2465 1.004 6.4825 1.155 9.7395.582 10.564 1.004 21.127 1.536 31.691.058 2.023.253 4.039.582 6.035.126.38.344.721.636.992.291.271.646.462 1.031.555.411-.049.806-.193 1.154-.42.348-.228.64-.533.853-.893.252-.809.311-1.667.171-2.503-.161-13.57-.324-27.119-.492-40.647-.039-1.406.25-2.8004.844-4.0712.592 4.7732 1.295 9.5462 1.756 14.3392.613 6.391 1.004 12.803 1.546 19.204.482 6.106 1.285 12.111 1.406 18.166.119 2.952-.431 5.892-1.608 8.594-1.176 2.703-2.948 5.097-5.179 6.997-.513.552-1.126.998-1.807 1.313-2.861.957-3.544 2.829-3.493 5.842.19 13.311.13 26.633 0 39.944 0 2.239.482 3.125 2.891 3.104 13.131-.101 26.263-.071 39.394 0 2.259 0 3.253-.59 3.253-3.185-.081-40.108 0-80.215-.121-120.3328-.031-1.2957-.532-2.5344-1.405-3.4805-7.878-7.7209-15.836-15.3469-23.874-22.8779-8.192-7.7141-16.454-15.3571-24.696-23.0203-6.465-6.0248-12.971-11.9987-19.396-18.0642-1.285-1.2212-2.279-1.0177-3.443 0-3.133 2.758-6.265 5.5159-9.417 8.2434l-24.877 21.5854c-5.361 4.6407-10.682 9.3119-16.063 13.9526-6.285 5.4549-12.519 10.9912-18.924 16.2832-2.811 2.3407-4.307 4.7425-4.257 8.7217.231 19.4994.141 39.0084.091 58.5174 0 19.917-.181 39.843-.271 59.77 0 3.735.07 3.816 3.835 3.816h40.91c3.262 0 3.403-.163 3.403-3.45v-42.468c0-2.107-.482-3.115-2.741-3.959-8.423-3.114-13.804-9.414-16.253-18.085-2.45-8.671-1.145-17.301 1.746-25.595 1.835-5.197 4.018-10.26 6.536-15.153 2.013-3.988 5.128-7.294 8.965-9.516 4.447-2.5951 9.648-1.6181 13.924 2.402 6.827 6.411 10.27 14.716 12.83 23.498 1.878 6.443 3.012 13.017 2.099 19.764-1.456 10.859-6.837 18.807-17.167 22.654-2.149.804-2.641 1.832-2.641 3.837v49.104c-.1 3.582-1.004 4.681-4.457 4.691-16.565.062-33.13 0-49.684.051-1.176.011-2.342-.221-3.427-.681s-2.066-1.14-2.884-1.996c-.818-.857-1.455-1.873-1.874-2.988-.418-1.114-.608-2.303-.559-3.494.08-50.715.08-101.427 0-152.1358 0-2.1677.743-2.7885 2.77-2.6765 2.741.1119 5.422 0 8.604 0z"/><path d="m229.617 223.571h-40.659v-159.9316c13.523 7.2562 26.985 7.3376 40.659 0z"/><path d="m863.312 223.734c-3.524 0-6.686.061-9.848-.061-.482 0-1.145-.804-1.346-1.374-.146-.748-.173-1.514-.08-2.27v-156.7254c0-1.1704.121-2.3306.191-3.5314h11.043v33.0345l.843.2442c1.539-2.9206 2.919-5.9239 4.136-8.9964 3.494-10.177 11.385-16.0492 19.998-21.0562 12.55-7.2868 26.374-8.6098 40.388-7.1239 12.901 1.3433 24.556 6.1062 33.571 16.0898 5.63 6.3205 9.56 14.0026 11.415 22.308 2.791 11.7548 3.192 23.7628 3.192 35.7618-.06 30.097-.06 60.197 0 90.301v3.236h-10.842c0-1.15-.14-2.209-.14-3.277v-78.851c0-6.27.07-12.559-.342-18.808-.592-8.996-.823-18.074-3.544-26.7752-4.377-13.9934-12.84-23.9567-27.106-28.3531-8.362-2.5646-16.886-2.5748-25.298-1.5469-9.123 1.1233-17.728 4.91-24.767 10.8995-8.734 7.3173-14.165 16.6598-17.519 27.4777-2.727 9.143-4.038 18.66-3.885 28.211.101 29.157 0 58.334 0 87.522z"/><path d="m641.707 59.823h10.992c.061 1.1195.161 2.1168.161 3.1142v157.4078c0 3.409 0 3.419-3.494 3.419h-5.772c-1.365 0-2.008-.519-1.898-1.964 0-.509 0-1.018 0-1.527v-160.45z"/><path d="m231.845 38.4004c.141 12.7314-9.175 21.5142-22.226 21.504-13.925 0-22.819-8.6301-22.809-22.0332 0-12.6093 9.155-22.1451 23.441-21.7991 12.128.285 21.996 8.9252 21.594 22.3283z"/><path d="m647.529 29.1801c5.431.4783 8.423 3.7451 8.534 8.7623.025 2.3375-.867 4.5893-2.479 6.2603-1.613 1.6709-3.814 2.6241-6.12 2.6497s-4.527-.8783-6.176-2.513c-1.648-1.6347-2.588-3.8662-2.613-6.2036.033-2.368.978-4.6292 2.632-6.3019 1.653-1.6727 3.886-2.6249 6.222-2.6538z"/><path d="m1021.16 79.2814c-.21-.9486-.36-1.9109-.44-2.8801 0-4.4066 0-8.8133-.06-13.2301-.13-1.0674-.35-2.1204-.68-3.1447h-.65l-5.56 14.9806c-.18.6439-.44 1.2625-.77 1.842-.53.7154-1.1 1.3953-1.72 2.0354-.7-.7124-1.72-1.3128-2.06-2.1779-1.78-4.5288-3.39-9.1593-5.1-13.688-.43-1.2409-1.14-2.3628-2.08-3.277-.07.8447-.19 1.6893-.19 2.534 0 4.8341 0 9.6682-.05 14.5022-.16.7243-.44 1.4137-.84 2.0354-.33-.6513-.93-1.2924-.93-1.9438-.074-6.9407 0-13.8814 0-20.8933 2.11-.804 3.29-.5394 4.01 1.8013 1.76 5.4243 3.8 10.7571 5.76 16.1102.52 1.0262 1.1 2.0126 1.76 2.9513l3.57-9.6987c1.17-3.2261 2.42-6.4115 3.48-9.6783.61-1.9234 1.69-2.2796 3.36-1.6385.84 4.0505.47 21.5956-.81 23.458z"/><path d="m977.91 55.7625h17.9c.013.1978.037.3948.07.5902-.894.0713-1.777.1934-2.67.2036-6.165.0814-5.371-.7226-5.412 5.6177v14.4615c0 .7225-.632 1.4349-1.004 2.1575-.38-.6268-.652-1.3153-.803-2.0354-.06-5.8416-.09-11.673 0-17.5146 0-1.9744-.642-2.7783-2.61-2.6562-1.807.1119-3.624 0-5.441 0z"/><path clip-rule="evenodd" d="m461.256 154.093c.181 1.374.328 2.714.473 4.024.319 2.889.623 5.638 1.229 8.32 1.486 6.626 3.454 13.057 7.399 18.787 4.254 6.489 10.813 11.065 18.312 12.772 7.255 1.819 14.868 1.54 21.976-.804 9.617-3.236 16.384-9.515 19.636-19.407.096-.28.209-.552.322-.825.113-.272.225-.544.321-.824l.003-.01c1.513-4.488 1.516-4.498 6.121-4.498h35.92c-.513 1.563-.989 3.083-1.456 4.569-.938 2.994-1.834 5.852-2.901 8.661-4.048 10.401-10.715 19.545-19.335 26.521-7.452 6.047-16.034 10.502-25.229 13.098-12.69 3.816-25.7 4.264-38.681 2.829-13.563-1.321-26.473-6.535-37.215-15.032-12.881-10.268-20.4-23.783-24.576-39.557-2.099-7.83-3.173-15.905-3.193-24.018 0-1.05-.006-2.105-.012-3.162-.029-5.088-.058-10.236.574-15.259 1.526-12.1 4.779-23.783 11.445-34.123 3.275-5.4118 7.075-10.478 11.344-15.123 8.346-8.4852 18.593-14.7981 29.867-18.4 11.901-3.8144 24.455-5.0794 36.864-3.7146 12.575 1.0681 24.595 5.718 34.675 13.4133 12.013 9.0516 20.814 21.8006 25.088 36.3423 1.908 6.275 3.252 12.713 4.016 19.234.656 5.872.711 11.822.766 17.762.013 1.421.026 2.842.047 4.261.06 3.837-.441 4.163-4.126 4.163zm1.2-27.071c.287-2.149.628-4.246 1.046-6.294 1.235-6.062 3.136-11.689 6.243-16.9 7.74-12.9955 19.396-17.5853 33.912-16.0384 6.749.5324 13.063 3.5555 17.753 8.4832.151.1589.301.3198.448.4827 4.635 5.3415 7.821 11.8115 9.247 18.7765.428 1.832.766 3.668 1.106 5.519.178.968.357 1.94.55 2.918.427 2.165.454 2.803-.821 2.984-.406.064-.949.079-1.659.079h-67.825z" fill-rule="evenodd"/></g></svg>

<svg width="1024" height="230" viewBox="0 0 1024 230" fill="none" xmlns="http://www.w3.org/2000/svg">
<path fill-rule="evenodd" clip-rule="evenodd" d="M126.494 1V82.7925L125.621 83.1996C125.012 82.2663 124.417 81.3213 123.821 80.3764C122.578 78.405 121.336 76.4338 119.978 74.5695C119.338 73.6897 118.81 72.729 118.28 71.766C117.15 69.7101 116.013 67.6429 113.764 66.3261C105.703 61.6345 96.808 59.7925 87.7727 58.9274C75.9364 57.7876 64.1906 58.5712 52.7157 62.642C35.5286 68.6566 22.839 79.8513 13.8037 95.7071C6.41489 108.713 3.43324 123.032 2.29881 137.758C1.60748 147.213 2.11696 156.718 3.81473 166.04C5.19103 174.337 7.69804 182.4 11.2638 189.997C17.4379 202.871 26.4632 213.048 38.9721 219.897C47.4759 224.527 56.8889 227.183 66.5297 227.672C80.434 228.496 94.007 227.082 106.827 221.2C109.498 219.978 112.339 218.513 114.246 216.376C116.105 214.315 117.573 211.917 119.041 209.521C119.769 208.332 120.498 207.143 121.274 205.995C122.249 204.571 123.265 203.204 124.283 201.835C124.764 201.189 125.244 200.542 125.721 199.889L126.424 200.164V223.571C126.895 223.598 127.319 223.634 127.713 223.666C128.337 223.718 128.888 223.764 129.435 223.764C134.344 223.79 139.254 223.781 144.164 223.773C150.883 223.761 157.601 223.749 164.312 223.825C166.892 223.856 167.504 223.052 167.504 220.508C167.464 148.271 167.444 76.035 167.444 3.79867V1H126.494ZM127.207 141.605L126.544 141.493C126.835 131.805 125.892 122.269 122.639 113.11C119.928 105.487 115.541 98.9128 108.976 94.4858C105.857 92.3996 102.69 90.7586 99.4867 89.5652C93.5429 87.3286 87.4707 86.6595 81.3395 87.5636C76.5883 88.2516 71.8072 89.8782 67.0318 92.4505C57.0126 97.8443 51.1698 107.044 48.1581 117.832C46.9779 122.016 46.3952 126.372 45.8119 130.733C45.5566 132.641 45.3013 134.55 44.9957 136.446C43.6806 145.065 44.7347 153.635 46.3209 162.112C47.8246 170.668 51.402 178.712 56.7315 185.519C60.0026 189.715 64.149 193.067 68.8305 195.365C71.4363 196.653 74.2095 197.614 77.091 198.21C82.6567 199.35 88.3911 199.35 93.9568 198.21C99.6096 197.257 104.948 194.92 109.508 191.401C117.93 184.715 122.559 175.586 124.466 165.206C125.44 159.862 125.953 154.426 126.466 148.988C126.553 148.065 126.641 147.141 126.73 146.217C126.834 145.14 126.942 144.063 127.056 142.988C127.105 142.527 127.155 142.066 127.207 141.605L127.207 141.605Z" fill="#F93D59"/>
<path d="M400.565 223.581C399.38 223.652 398.486 223.754 397.553 223.764C385.927 223.764 374.292 223.693 362.667 223.825C360.076 223.825 359.494 223.031 359.494 220.497C359.581 190.74 359.581 160.976 359.494 131.204C359.541 124.866 359.206 118.531 358.49 112.235C356.974 100.297 350.921 91.8806 338.934 88.8275C329.627 86.4054 320.532 86.6801 312.26 92.0739C306.638 95.8672 302.228 101.239 299.57 107.533C295.496 116.352 293.254 125.927 292.984 135.662C292.512 163.7 292.382 191.747 292.111 219.785V223.571C291.027 223.652 290.103 223.774 289.25 223.774C277.534 223.774 265.828 223.774 254.112 223.846C251.633 223.846 251.101 223.021 251.101 220.64C251.161 169.002 251.178 117.36 251.151 65.7155V62.8965C252.155 62.8253 252.797 62.7438 253.45 62.7438H289.591C291.549 62.7438 292.221 63.2832 292.181 65.3186C292.071 71.5877 292.181 77.8669 292.181 84.1359V86.8938L292.964 87.3925C294.097 86.1558 295.162 84.8581 296.157 83.5049C298.887 79.3018 301.006 74.5593 304.319 70.9363C307.079 67.8832 311.005 65.7766 314.759 63.9549C326.254 58.3881 338.603 57.981 351.001 58.8664C361.592 59.6093 371.662 62.3877 380.426 68.7076C388.786 74.6717 394.824 83.4134 397.493 93.4173C400.434 103.869 400.635 114.596 400.655 125.343C400.695 157.135 400.695 188.932 400.655 220.731L400.565 223.581Z" fill="#F93D59"/>
<path d="M684.594 59.8027V75.3836C686.321 74.0708 687.606 73.2058 688.76 72.1983C694.663 67.0487 700.506 61.8279 706.429 56.6987C716.763 47.7429 727.11 38.8109 737.471 29.9027C742.079 25.9337 746.616 21.873 751.315 18.016C754.808 15.1562 758.623 15.4005 761.926 18.4739C767.618 23.7558 773.24 29.1089 778.902 34.4213C787.844 42.8207 796.789 51.2065 805.737 59.5788L831.839 84.0036C832.923 84.9852 833.777 86.2002 834.338 87.5596C834.899 88.919 835.154 90.3884 835.082 91.8602C835.022 132.738 835.022 173.615 835.082 214.493C835.082 220.09 831.94 223.652 826.448 223.723C810.466 223.846 794.493 223.805 778.511 223.723C775.158 223.723 774.114 222.462 774.114 218.981V171.973C774.216 171.153 774.064 170.32 773.679 169.591C773.295 168.862 772.696 168.272 771.965 167.903C764.697 163.649 761.555 156.952 762.067 148.668C762.739 137.789 763.814 126.94 764.747 116.102C765.179 111.013 765.681 106.006 766.163 100.958C766.167 100.634 766.236 100.313 766.365 100.015C766.494 99.7182 766.682 99.4504 766.916 99.2283C767.036 100.47 767.267 101.712 767.267 102.943C767.2 116.336 767.106 129.729 766.986 143.122C766.986 143.804 766.755 144.628 767.056 145.157C767.538 145.951 768.401 147.07 769.064 147.04C769.524 146.913 769.943 146.667 770.281 146.326C770.619 145.985 770.864 145.562 770.992 145.096C771.504 137.412 771.755 129.719 772.226 122.035C772.708 114.127 773.341 106.22 774.495 98.2615C774.655 98.7267 774.766 99.2077 774.827 99.6965C775.007 108.164 775.138 116.641 775.339 125.139C775.499 131.734 775.77 138.369 775.941 144.923C775.941 146.266 776.192 147.264 777.848 147.233C779.505 147.203 780.027 146.358 780.037 144.821C780.037 137.199 780.037 129.556 780.268 121.933C780.499 113.995 780.991 106.077 781.683 98.0885C782.085 101.335 782.687 104.571 782.838 107.828C783.42 118.392 783.842 128.955 784.374 139.519C784.432 141.542 784.627 143.558 784.956 145.554C785.082 145.934 785.3 146.275 785.592 146.546C785.883 146.817 786.238 147.008 786.623 147.101C787.034 147.052 787.429 146.908 787.777 146.681C788.125 146.453 788.417 146.148 788.63 145.788C788.882 144.979 788.941 144.121 788.801 143.285C788.64 129.715 788.477 116.166 788.309 102.638C788.27 101.232 788.559 99.8376 789.153 98.5668C789.745 103.34 790.448 108.113 790.909 112.906C791.522 119.297 791.913 125.709 792.455 132.11C792.937 138.216 793.74 144.221 793.861 150.276C793.98 153.228 793.43 156.168 792.253 158.87C791.077 161.573 789.305 163.967 787.074 165.867C786.561 166.419 785.948 166.865 785.267 167.18C782.406 168.137 781.723 170.009 781.774 173.022C781.964 186.333 781.904 199.655 781.774 212.966C781.774 215.205 782.256 216.091 784.665 216.07C797.796 215.969 810.928 215.999 824.059 216.07C826.318 216.07 827.312 215.48 827.312 212.885C827.231 172.777 827.312 132.67 827.191 92.5522C827.16 91.2565 826.659 90.0178 825.786 89.0717C817.908 81.3508 809.95 73.7248 801.912 66.1938C793.72 58.4797 785.458 50.8367 777.216 43.1735C770.751 37.1487 764.245 31.1748 757.82 25.1093C756.535 23.8881 755.541 24.0916 754.377 25.1093C751.244 27.8673 748.112 30.6252 744.96 33.3527L720.083 54.9381C714.722 59.5788 709.401 64.25 704.02 68.8907C697.735 74.3456 691.501 79.8819 685.096 85.1739C682.285 87.5146 680.789 89.9164 680.839 93.8956C681.07 113.395 680.98 132.904 680.93 152.413C680.93 172.33 680.749 192.256 680.659 212.183C680.659 215.918 680.729 215.999 684.494 215.999H725.404C728.666 215.999 728.807 215.836 728.807 212.549V170.081C728.807 167.974 728.325 166.966 726.066 166.122C717.643 163.008 712.262 156.708 709.813 148.037C707.363 139.366 708.668 130.736 711.559 122.442C713.394 117.245 715.577 112.182 718.095 107.289C720.108 103.301 723.223 99.995 727.06 97.773C731.507 95.1779 736.708 96.1549 740.984 100.175C747.811 106.586 751.254 114.891 753.814 123.673C755.692 130.116 756.826 136.69 755.913 143.437C754.457 154.296 749.076 162.244 738.746 166.091C736.597 166.895 736.105 167.923 736.105 169.928V219.032C736.005 222.614 735.101 223.713 731.648 223.723C715.083 223.785 698.518 223.723 681.964 223.774C680.788 223.785 679.622 223.553 678.537 223.093C677.452 222.633 676.471 221.953 675.653 221.097C674.835 220.24 674.198 219.224 673.779 218.109C673.361 216.995 673.171 215.806 673.22 214.615C673.3 163.9 673.3 113.188 673.22 62.4792C673.22 60.3115 673.963 59.6907 675.99 59.8027C678.731 59.9146 681.412 59.8027 684.594 59.8027Z" fill="#F93D59"/>
<path d="M229.617 223.571H188.958V63.6394C202.481 70.8956 215.943 70.977 229.617 63.6394V223.571Z" fill="#F93D59"/>
<path d="M863.312 223.734C859.788 223.734 856.626 223.795 853.464 223.673C852.982 223.673 852.319 222.869 852.118 222.299C851.972 221.551 851.945 220.785 852.038 220.029V63.3036C852.038 62.1332 852.159 60.973 852.229 59.7722H863.272V92.8067L864.115 93.0509C865.654 90.1303 867.034 87.127 868.251 84.0545C871.745 73.8775 879.636 68.0053 888.249 62.9983C900.799 55.7115 914.623 54.3885 928.637 55.8744C941.538 57.2177 953.193 61.9806 962.208 71.9642C967.838 78.2847 971.768 85.9668 973.623 94.2722C976.414 106.027 976.815 118.035 976.815 130.034C976.755 160.131 976.755 190.231 976.815 220.335V223.571H965.973C965.973 222.421 965.833 221.362 965.833 220.294V141.443C965.833 135.173 965.903 128.884 965.491 122.635C964.899 113.639 964.668 104.561 961.947 95.8598C957.57 81.8664 949.107 71.9031 934.841 67.5067C926.479 64.9421 917.955 64.9319 909.543 65.9598C900.42 67.0831 891.815 70.8698 884.776 76.8593C876.042 84.1766 870.611 93.5191 867.257 104.337C864.53 113.48 863.219 122.997 863.372 132.548C863.473 161.705 863.372 190.882 863.372 220.07L863.312 223.734Z" fill="#F93D59"/>
<path d="M641.707 59.823H652.699C652.76 60.9425 652.86 61.9398 652.86 62.9372V220.345C652.86 223.754 652.86 223.764 649.366 223.764H643.594C642.229 223.764 641.586 223.245 641.696 221.8C641.696 221.291 641.696 220.782 641.696 220.273V59.823H641.707Z" fill="#F93D59"/>
<path d="M231.845 38.4004C231.986 51.1318 222.67 59.9146 209.619 59.9044C195.694 59.9044 186.8 51.2743 186.81 37.8712C186.81 25.2619 195.965 15.7261 210.251 16.0721C222.379 16.3571 232.247 24.9973 231.845 38.4004Z" fill="#F93D59"/>
<path d="M647.529 29.1801C652.96 29.6584 655.952 32.9252 656.063 37.9424C656.088 40.2799 655.196 42.5317 653.584 44.2027C651.971 45.8736 649.77 46.8268 647.464 46.8524C645.158 46.878 642.937 45.9741 641.288 44.3394C639.64 42.7047 638.7 40.4732 638.675 38.1358V38.1358C638.708 35.7678 639.653 33.5066 641.307 31.8339C642.96 30.1612 645.193 29.209 647.529 29.1801V29.1801Z" fill="#F93D59"/>
<path d="M1021.16 79.2814C1020.95 78.3328 1020.8 77.3705 1020.72 76.4013C1020.72 71.9947 1020.72 67.588 1020.66 63.1712C1020.53 62.1038 1020.31 61.0508 1019.98 60.0265H1019.33L1013.77 75.0071C1013.59 75.651 1013.33 76.2696 1013 76.8491C1012.47 77.5645 1011.9 78.2444 1011.28 78.8845C1010.58 78.1721 1009.56 77.5717 1009.22 76.7066C1007.44 72.1778 1005.83 67.5473 1004.12 63.0186C1003.69 61.7777 1002.98 60.6558 1002.04 59.7416C1001.97 60.5863 1001.85 61.4309 1001.85 62.2756C1001.85 67.1097 1001.85 71.9438 1001.8 76.7778C1001.64 77.5021 1001.36 78.1915 1000.96 78.8132C1000.63 78.1619 1000.03 77.5208 1000.03 76.8694C999.956 69.9287 1000.03 62.988 1000.03 55.9761C1002.14 55.1721 1003.32 55.4367 1004.04 57.7774C1005.8 63.2017 1007.84 68.5345 1009.8 73.8876C1010.32 74.9138 1010.9 75.9002 1011.56 76.8389L1015.13 67.1402C1016.3 63.9141 1017.55 60.7287 1018.61 57.4619C1019.22 55.5385 1020.3 55.1823 1021.97 55.8234C1022.81 59.8739 1022.44 77.419 1021.16 79.2814Z" fill="#F93D59"/>
<path d="M977.91 55.7625H995.81C995.823 55.9603 995.847 56.1573 995.88 56.3527C994.986 56.424 994.103 56.5461 993.21 56.5563C987.045 56.6377 987.839 55.8337 987.798 62.174V76.6355C987.798 77.358 987.166 78.0704 986.794 78.793C986.414 78.1662 986.142 77.4777 985.991 76.7576C985.931 70.916 985.901 65.0846 985.991 59.243C985.991 57.2686 985.349 56.4647 983.381 56.5868C981.574 56.6987 979.757 56.5868 977.94 56.5868L977.91 55.7625Z" fill="#F93D59"/>
<path fill-rule="evenodd" clip-rule="evenodd" d="M461.256 154.093C461.437 155.467 461.584 156.807 461.729 158.117C462.048 161.006 462.352 163.755 462.958 166.437C464.444 173.063 466.412 179.494 470.357 185.224C474.611 191.713 481.17 196.289 488.669 197.996C495.924 199.815 503.537 199.536 510.645 197.192C520.262 193.956 527.029 187.677 530.281 177.785C530.377 177.505 530.49 177.233 530.603 176.96C530.716 176.688 530.828 176.416 530.924 176.136L530.927 176.126C532.44 171.638 532.443 171.628 537.048 171.628H572.968C572.455 173.191 571.979 174.711 571.512 176.197C570.574 179.191 569.678 182.049 568.611 184.858C564.563 195.259 557.896 204.403 549.276 211.379C541.824 217.426 533.242 221.881 524.047 224.477C511.357 228.293 498.347 228.741 485.366 227.306C471.803 225.985 458.893 220.771 448.151 212.274C435.27 202.006 427.751 188.491 423.575 172.717C421.476 164.887 420.402 156.812 420.382 148.699C420.382 147.649 420.376 146.594 420.37 145.537C420.341 140.449 420.312 135.301 420.944 130.278C422.47 118.178 425.723 106.495 432.389 96.155C435.664 90.7432 439.464 85.677 443.733 81.032C452.079 72.5468 462.326 66.2339 473.6 62.632C485.501 58.8176 498.055 57.5526 510.464 58.9174C523.039 59.9855 535.059 64.6354 545.139 72.3307C557.152 81.3823 565.953 94.1313 570.227 108.673C572.135 114.948 573.479 121.386 574.243 127.907C574.899 133.779 574.954 139.729 575.009 145.669C575.022 147.09 575.035 148.511 575.056 149.93C575.116 153.767 574.615 154.093 570.93 154.093H461.256ZM462.456 127.022C462.743 124.873 463.084 122.776 463.502 120.728C464.737 114.666 466.638 109.039 469.745 103.828C477.485 90.8325 489.141 86.2427 503.657 87.7896C510.406 88.322 516.72 91.3451 521.41 96.2728C521.561 96.4317 521.711 96.5926 521.858 96.7555C526.493 102.097 529.679 108.567 531.105 115.532C531.533 117.364 531.871 119.2 532.211 121.051C532.389 122.019 532.568 122.991 532.761 123.969C533.188 126.134 533.215 126.772 531.94 126.953C531.534 127.017 530.991 127.032 530.281 127.032H462.456L462.456 127.022Z" fill="#F93D59"/>
</svg>
